!!!OTL: ICH WILL EINST BEI JA UND NEIN
!!!ARE: Europa, Mitteleuropa, Deutschland
!!!SCT: E1690
!!!YEM: Copyright 1995, estate of Helmut Schaffrath.
**kern
*ICvox
*Ivox
*M2/4
*k[]
*C:
=1
{8cc
8g
8g
16e
16f
=2
8g
8g
4g}
=3
{16a
16g
16f
16g
16a
16g
16a
16b
=4
4cc
4c}
=5
{8ee
8ee
8dd
8dd
=6
8cc
8cc
4b}
=7
{8a
8g
8b
8cc
=8
4dd
4g}
=9
{8g
8g
8a
16b
16cc
=10
8dd
8dd
4g}
=11
{8cc
8cc
8cc
8cc
=12
4b
4g}
=13
{8cc
8g
8dd
8g
=14
8ee
8cc
4g}
=15
{8cc
8g
8e
16e
16f
=16
4g
8c
8r}
==
!!!AGN: Staende -, Studenten - Lied, Trink - Lied
!!!ONB: ESAC (Essen Associative Code) Database: ERK3
!!!AMT: simple duple
!!!AIN: vox
!!!EED: Helmut Schaffrath
!!!EEV: 1.0
*-
